**kern	**kern	**kern	**dynam
*part1	*part1	*part1	*part1
*staff3	*staff2	*staff1	*staff1
*IPiano	*IPiano	*IPiano	*IPiano
*clefF4	*clefG2	*clefG2	*clefG2
*k[]	*k[]	*k[]	*k[]
*M2/4	*M2/4	*M2/4	*M2/4
=1	=1	=1	=1
!Tempo Marking: Moderement anime	!Tempo Marking: Moderement anime	!Tempo Marking: Moderement anime	!Tempo Marking: Moderement anime
2r	4ryy	>4ccc 4eee	p>
.	4dd 4ff#	4ryy	]
=2	=2	=2	=2
2r	4ryy	>4ffn 4aa	p>
.	[4g [4b	4ryy	]
=3	=3	=3	=3
2r	2g_ 2b_	2r	.
=4	=4	=4	=4
2r	2g] 2b]	2r	.
*	*clefF4	*	*
=5	=5	=5	=5
!	!	!	!Dynamic Expression: piu 
4ryy	>4A- 4c	2r	p>
4BB- 4D	4ryy	.	]
=6	=6	=6	=6
4ryy	>4D- 4F	2r	>
4EE- 4GG	4ryy	.	]
=7	=7	=7	=7
4ryy	4r	2r	.
!Tempo Marking: Cedez	!Tempo Marking: Cedez	!Tempo Marking: Cedez	!Tempo Marking: Cedez
8ryy	>8D- 8F	.	.
8EE- 8GG	8ryy	.	.
=8	=8	=8	=8
4ryy	>4En 4G#	2r	.
[4FF# [4AA#	4r	.	.
=9	=9	=9	=9
2FF#] 2AA#]	2r	2r	.
=10	=10	=10	=10
4ryy	4r	2r	.
8ryy	>8D- 8F	.	.
8EE-Z 8GG	8ryy	.	.
=11||	=11||	=11||	=11||
!Tempo Marking: Un peu plus anime	!Tempo Marking: Un peu plus anime	!Tempo Marking: Un peu plus anime	!Tempo Marking: Un peu plus anime
!	!Expression: les notes marquees du signe _ doucement timbrees	!	!
!	!Expression: legerement detache sans secheresse	!	!
2r	16F~LL 16A	2r	pp
.	16B 16d	.	.
.	16c 16e	.	.
.	16B 16d	.	.
.	16F 16A	.	.
.	16B 16d	.	.
.	16c 16e	.	.
.	16BJJ 16d	.	.
=12	=12	=12	=12
2r	16E~LL 16G#	2r	.
.	16B 16d	.	.
.	16c 16e	.	.
.	16B 16d	.	.
.	16E 16G#	.	.
.	16B 16d	.	.
.	16c 16e	.	.
.	16BJJ 16d	.	.
*	*clefG2	*	*
=13	=13	=13	=13
2r	16A~LL 16c	2r	.
.	16d 16f	.	.
.	16e 16g	.	.
.	16d 16f	.	.
.	16A 16c	.	.
.	16d 16f	.	.
.	16e 16g	.	.
.	16dJJ 16f	.	.
=14	=14	=14	=14
2r	16ALL 16c	2r	.
.	16d 16f	.	.
.	16e 16g	.	.
.	16d 16f	.	.
.	16G~ 16B	.	.
.	16d 16f	.	.
.	16e 16g	.	.
.	16dJJ 16f	.	.
*	*clefF4	*	*
=15	=15	=15	=15
2r	16F~LL 16A	2r	.
.	16B 16d	.	.
.	16c 16e	.	.
.	16B 16d	.	.
.	16F 16A	.	.
.	16B 16d	.	.
.	16c 16e	.	.
.	16BJJ 16d	.	.
=16	=16	=16	=16
2r	16E~LL 16G#	2r	.
.	16B 16d	.	.
.	16c 16e	.	.
.	16B 16d	.	.
.	16E 16G#	.	.
.	16B 16d	.	.
.	16c 16e	.	.
.	16BJJ 16d	.	.
=17	=17	=17	=17
*	*clefG2	*	*
2r	16A~LL 16c	2r	.
.	16d 16f	.	.
.	16e 16g	.	.
.	16d 16f	.	.
.	16A 16c	.	.
.	16d 16f	.	.
.	16e 16g	.	.
.	16dJJ 16f	.	.
=18	=18	=18	=18
2r	16ALL 16c	2r	.
.	16d 16f	.	.
.	16e 16g	.	.
.	16d 16f	.	.
.	16G~ 16B	.	.
.	16d 16f	.	.
.	16e 16g	.	.
.	16dJJ 16f	.	.
=19	=19	=19	=19
2r	16c~LL 16e	2r	.
.	16f 16a	.	.
.	16g 16b	.	.
.	16f 16a	.	.
.	16c 16e	.	.
.	16f 16a	.	.
.	16g 16b	.	.
.	16fJJ 16a	.	.
=20	=20	=20	=20
2r	16B~LL 16d	2r	.
.	16f 16a	.	.
.	16g 16b	.	.
.	16f 16a	.	.
.	16B 16d	.	.
.	16f 16a	.	.
.	16g 16b	.	.
.	16fJJ 16a	.	.
=21	=21	=21	=21
2r	16e~LL 16g	2r	<
.	16a 16cc	.	.
.	16b 16dd	.	.
.	16a 16cc	.	.
.	16b 16dd	.	.
.	16a 16cc	.	.
.	16b 16dd	.	.
.	16aJJ 16cc	.	.
=22	=22	=22	=22
2r	16f~LL 16a-	2r	[>
.	16an 16cc	.	.
.	16b 16dd	.	.
.	16a 16cc	.	.
.	16e~ 16g	.	.
.	16a 16cc	.	.
.	16b 16dd	.	.
.	16aJJ 16cc	.	.
=23	=23	=23	=23l
2r	16e-~LL 16g-	2r	]p
.	16a 16cc	.	.
.	16b 16dd	.	.
.	16a 16cc	.	.
.	16ee- 16gg-	.	.
.	16a 16cc	.	.
.	16b 16dd	.	.
.	16aJJ 16cc	.	.
=24	=24	=24	=24
2r	16e-~LL 16g-	2r	.
.	16a 16cc	.	.
.	16b 16dd	.	.
.	16a 16cc	.	.
.	16ee- 16gg-	.	.
.	16a 16cc	.	.
.	16b 16dd	.	.
.	16aJJ 16cc	.	.
=25	=25	=25	=25
2r	16d~LL 16f#	2r	<
.	16gn 16b	.	.
.	16a 16cc	.	.
.	16g 16b	.	.
.	16a 16cc	.	.
.	16g 16b	.	.
.	16a 16cc	.	.
.	16gJJ 16b	.	.
=26	=26	=26	=26
2r	16e~LL 16g	2r	[>
.	16g 16b	.	.
.	16a 16cc	.	.
.	16g 16b	.	.
.	16d#~ 16f#	.	.
.	16g 16b	.	.
.	16a 16cc	.	.
.	16gJJ 16b	.	.
=27	=27	=27	=27
2r	16dn~LL 16fn	2r	]
.	16g 16b	.	.
.	16a 16cc	.	.
.	16g 16b	.	.
.	16dd 16ff	.	.
.	16g 16b	.	.
.	16a 16cc	.	.
.	16gJJ 16b	.	.
=28	=28	=28	=28
2r	16c~LL 16e	2r	.
.	16f 16a	.	.
.	16g 16b	.	.
.	16f 16a	.	.
.	16cc 16ee	.	.
.	16f 16a	.	.
.	16g 16b	.	.
.	16fJJ 16a	.	.
=29	=29	=29	=29
2r	16B~LL 16d	2r	.
.	16e 16g	.	.
.	16f 16a	.	.
.	16e 16g	.	.
.	16b 16dd	.	.
.	16e 16g	.	.
.	16f 16a	.	.
.	16eJJ 16g	.	.
=30	=30	=30	=30
2r	16A~LL 16c	2r	.
.	16d 16f	.	.
.	16e 16g	.	.
.	16d 16f	.	.
.	16a 16cc	.	.
.	16d 16f	.	.
.	16e 16g	.	.
.	16dJJ 16f	.	.
=31	=31	=31	=31
2r	16A-~LL 16c-	2r	.
.	16d 16f	.	.
.	16e 16g	.	.
.	16d 16f	.	.
.	16a- 16cc-	.	.
.	16d 16f	.	.
.	16e 16g	.	.
.	16dJJ 16f	.	.
=32	=32	=32	=32
2r	16G~LL 16B	2r	.
.	16d 16f	.	.
.	16e 16g	.	.
.	16d 16f	.	.
.	16g 16b	.	.
.	16d 16f	.	.
.	16e 16g	.	.
.	16dJJ 16f	.	.
=33	=33	=33	=33
2r	16G~LL 16B	2r	.
.	16d 16f	.	.
.	16e 16g	.	.
.	16d 16f	.	.
.	16g 16b	.	.
.	16d 16f	.	.
.	16e 16g	.	.
.	16dJJ 16f	.	.
=34	=34	=34	=34
2r	16cLL 16e	2r	p<
.	16d# 16f#	.	.
.	16c 16e	.	.
.	16d# 16f#	.	.
.	16e 16g	.	.
.	16f# 16a#	.	.
.	16e 16g	.	.
.	16f#JJ 16a#	.	.
=35	=35	=35	=35
2r	16gLL 16b	2r	.
.	16f# 16a#	.	.
.	16b 16dd	.	.
.	16a# 16cc#	.	.
.	16g 16b	.	.
.	16f# 16a#	.	.
.	16e 16g	.	.
.	16d#JJ 16f#	.	.
=36	=36	=36	=36
2r	16cLL 16e	2r	[p<
.	16d# 16f#	.	.
.	16c 16e	.	.
.	16d# 16f#	.	.
.	16e 16g	.	.
.	16f# 16a#	.	.
.	16e 16g	.	.
.	16f#JJ 16a#	.	.
=37	=37	=37	=37
2r	16gLL 16b	2r	.
.	16f#X 16a#X	.	.
.	16b 16dd	.	.
.	16a# 16cc#X	.	.
.	16g 16b	.	.
.	16f# 16a#	.	.
.	16e 16g	.	.
.	16d#XJJ 16f#	.	.
=38	=38	=38	=38
2r	16eLL 16g	2r	[p
.	16d# 16f#	.	.
.	16e 16g	.	.
.	16d# 16f#	.	.
.	16g 16b	.	<
.	16f# 16a#	.	.
.	16g 16b	.	.
.	16f#JJ 16a#	.	.
=39	=39	=39	=39
2r	16gLL 16b	2r	.
.	16f# 16a#	.	.
.	16g 16b	.	.
.	16f# 16a#	.	.
.	16b 16dd	.	.
.	16a# 16cc#	.	.
.	16b 16dd	.	.
.	16a#JJ 16cc#	.	.
=40	=40	=40	=40
!	!	!	!Dynamic Expression: subito
2r	16ddLL 16ff	2r	[pp
.	(>16ee' 16aa-	.	.
.	16dd 16ff	.	.
.	16aa-' 16ccc	.	.
.	16dd 16ff	.	.
.	16ccc' 16eee	.	.
.	16dd 16ff	.	.
.	16aa-'JJ 16ccc	.	.
=41	=41	=41	=41
2r	16ddLL 16ff	2r	.
.	16ee' 16aa-	.	.
.	16dd 16ff	.	.
.	16cc' 16ee	.	.
.	16dd 16ff	.	.
.	16a-' 16cc	.	.
.	16dd 16ff	.	.
.	16cc'JJ) 16ee	.	.
=42	=42	=42	=42
2r	16ddLL 16ff	2r	<
.	16ee 16aa-	.	.
.	16dd 16ff	.	.
.	16ee 16aa-	.	.
.	16dd 16ff	.	.
.	16ee 16aa-	.	.
.	16dd 16ff	.	.
.	16eeJJ 16aa-	.	.
=43	=43	=43	=43
2r	16eeLL 16gg	2r	.
.	16ff# 16bb-	.	.
.	16ee 16gg	.	.
.	16ff# 16bb-	.	.
.	16ee 16gg	.	.
.	16ff# 16bb-	.	.
.	16ee 16gg	.	.
.	16ff#JJ 16bb-	.	.
=44	=44	=44	=44
!	!	!	!Dynamic Expression: subito
2r	16ddLL 16ffn	2r	[pp
.	(>16ee' 16aa-	.	.
.	16dd 16ff	.	.
.	16aa-' 16ccc	.	.
.	16dd 16ff	.	.
.	16ccc' 16eee	.	.
.	16dd 16ff	.	.
.	16aa-'JJ 16ccc	.	.
=45	=45	=45	=45
2r	16ddLL 16ff	2r	.
.	16ee' 16aa-	.	.
.	16dd 16ff	.	.
.	16cc' 16ee	.	.
.	16dd 16ff	.	.
.	16a-' 16cc	.	.
.	16dd 16ff	.	.
.	16cc'JJ) 16ee	.	.
=46	=46	=46	=46
!	!	!	!Dynamic Expression: poco a poco cresc.
2r	16ddLL 16ff	2r	p
.	16a- 16cc	.	.
.	16dd 16ff	.	.
.	16a- 16cc	.	.
.	16ee 16gg	.	.
.	16b- 16dd	.	.
.	16ee 16gg	.	.
.	16b-JJ 16dd	.	.
=47	=47	=47	=47
2r	16ffLL 16aa-	2r	.
.	16cc 16ee-	.	.
.	16ff 16aa-	.	.
.	16cc 16ee-	.	.
.	16ff 16aa-	.	.
.	16cc 16ee-	.	.
.	16gg 16bb-	.	.
.	16ddJJ 16ff	.	.
=48	=48	=48	=48
2r	16ddLL 16ff	2r	.
.	16a- 16cc	.	.
.	16dd 16ff	.	.
.	16a- 16cc	.	.
.	16een 16gg	.	.
.	16b- 16dd	.	.
.	16ee 16gg	.	.
.	16b-JJ 16dd	.	.
=49	=49	=49	=49
2r	16ffLL 16aa-	2r	.
.	16cc 16ee-	.	.
.	16ff 16aa-	.	.
.	16cc 16ee-	.	.
.	16ff 16aa-	.	.
.	16cc 16ee-	.	.
.	16gg 16bb-	.	.
.	16ddJJ 16ff	.	.
=50	=50	=50	=50
2r	16aa-LL 16ccc	2r	.
.	16ee- 16gg	.	.
.	16aa- 16ccc	.	.
.	16ee- 16gg	.	.
.	16bb- 16ddd	.	.
.	16ff 16aa-	.	.
.	16bb- 16ddd	.	.
.	16ffJJ 16aa-	.	.
=51	=51	=51	=51
2r	16cccLL 16eee-	2r	.
.	16gg 16bb-	.	.
.	16ccc 16eee-	.	.
.	16gg 16bb-	.	.
.	16ddd 16fff	.	.
.	16aa- 16ccc	.	.
.	16ddd 16fff	.	.
.	16aa-JJ 16ccc	.	.
=52	=52	=52	=52
2r	16eee-LL 16ggg	2r	f
.	16aa- 16ccc	.	.
.	16ddd 16fff	.	.
.	16gg 16bb-	.	.
.	16bb-X 16ddd	.	.
.	16ee- 16gg	.	.
.	16aa-X 16ccc	.	.
.	16ddJJ 16ff	.	.
=53	=53	=53	=53
2r	16ee-LL 16gg	2r	.
.	16a- 16cc	.	.
.	16ee- 16gg	.	.
.	16a- 16cc	.	.
.	16dd 16ff#	.	.
.	16a- 16cc	.	.
.	16dd 16ff#	.	.
.	16a-JJ 16cc	.	.
=54	=54	=54	=54
2r	16ee-LL 16gg	2r	mf
.	16a- 16cc	.	.
.	16dd 16ffn	.	.
.	16g 16b-	.	.
.	16b-X 16dd	.	.
.	16e- 16g	.	.
.	16a-X 16cc	.	.
.	16dJJ 16f	.	.
*	*clefF4	*	*
=55	=55	=55	=55
2r	16e-LL 16g	2r	>
.	16A- 16c	.	.
.	16e- 16g	.	.
.	16A- 16c	.	.
.	16d 16f#	.	.
.	16A- 16c	.	.
.	16d 16f#	.	.
.	16A-JJ 16c	.	.
=56	=56	=56	=56
2r	16e-LL 16g	2r	]
.	16A- 16c	.	.
.	16d 16fn	.	.
.	16GJJ 16B-	.	.
.	16B-LL 16d	.	.
.	16E- 16G	.	.
.	16A- 16c	.	.
.	16DJJ 16F	.	.
=57	=57	=57	=57
2r	16E-LL 16G	2r	f<
.	16AA- 16C	.	.
.	16E- 16G	.	.
.	16AA- 16C	.	.
.	16E- 16G	.	.
.	16AA- 16C	.	.
.	16E- 16G	.	.
.	16AA-JJ 16C	.	.
=58	=58	=58	=58
2r	16AAA-LL 16CC	2r	[p>
.	16AA- 16C	.	.
.	16AAA- 16CC	.	.
.	16AA- 16C	.	.
.	16AAA- 16CC	.	.
.	16AA- 16C	.	.
.	16AAA- 16CC	.	.
.	16AA-JJ 16C	.	.
=59	=59	=59	=59
2r	16E-LL 16G	2r	]f<
.	16AAn 16C	.	.
.	16E- 16G	.	.
.	16AAJJ 16C	.	.
.	16E-LL 16G	.	.
.	16AA 16C	.	.
.	16E- 16G	.	.
.	16AAJJ 16C	.	.
=60	=60	=60	=60
2r	16AAALL 16CC	2r	[p>
.	16AA 16C	.	.
.	16AAA 16CC	.	.
.	16AA 16C	.	.
.	16AAA 16CC	.	.
.	16AA 16C	.	.
.	16AAA 16CC	.	.
.	16AAJJ 16C	.	.
=61	=61	=61	=61
!	!	!	!Dynamic Expression: molto dim.
2r	16E-LL 16G	2r	]
.	16AA 16C	.	.
.	16E- 16G	.	.
.	16F 16A	.	.
.	16E- 16G	.	.
.	16AA 16C	.	.
.	16E- 16G	.	.
.	16FJJ 16A	.	.
=62	=62	=62	=62
2r	16E-LL 16G	2r	.
.	16AA 16C	.	.
.	16E- 16G	.	.
.	16F 16A	.	.
.	16E- 16G	.	.
.	16AA 16C	.	.
.	16E- 16G	.	.
.	16FJJ 16A	.	.
=63	=63	=63	=63
2r	16EnLL 16G	2r	.
.	16BB- 16D-	.	.
.	16E 16G	.	.
.	16F 16A	.	.
.	16E 16G	.	.
.	16BB- 16D-	.	.
.	16E 16G	.	.
.	16FJJ 16A	.	.
=64	=64	=64	=64
2r	16ELL 16G	2r	.
.	16BB- 16D-	.	.
.	16E 16G	.	.
.	16F 16A	.	.
.	16E 16G	.	.
.	16BB- 16D-	.	.
.	16E 16G	.	.
.	16G-JJ 16B-	.	.
=65	=65	=65	=65
2r	16F~LL 16A	2r	pp
.	16Bn 16d	.	.
.	16c 16e	.	.
.	16B 16d	.	.
.	16F 16A	.	.
.	16B 16d	.	.
.	16c 16e	.	.
.	16BJJ 16d	.	.
=66	=66	=66	=66
2r	16E~LL 16G#	2r	.
.	16B 16d	.	.
.	16c 16e	.	.
.	16B 16d	.	.
.	16E 16G#	.	.
.	16B 16d	.	.
.	16c 16e	.	.
.	16BJJ 16d	.	.
=67	=67	=67	=67
2r	16A~LL 16c	2r	.
.	16d 16f	.	.
.	16e 16g	.	.
.	16d 16f	.	.
.	16A 16c	.	.
.	16d 16f	.	.
.	16e 16g	.	.
.	16dJJ 16f	.	.
=68	=68	=68	=68
2r	16ALL 16c	2r	.
.	16d 16f	.	.
.	16e 16g	.	.
.	16d 16f	.	.
.	16G~ 16B	.	.
.	16d 16f	.	.
.	16e 16g	.	.
.	16dJJ 16f	.	.
=69	=69	=69	=69
2r	16F~LL 16A	2r	.
.	16B 16d	.	.
.	16c 16e	.	.
.	16B 16d	.	.
.	16F 16A	.	.
.	16B 16d	.	.
.	16c 16e	.	.
.	16BJJ 16d	.	.
=70	=70	=70	=70
2r	16E~LL 16G#	2r	.
.	16B 16d	.	.
.	16c 16e	.	.
.	16B 16d	.	.
.	16E 16G#	.	.
.	16B 16d	.	.
.	16c 16e	.	.
.	16BJJ 16d	.	.
=71	=71	=71	=71
*	*clefG2	*	*
2r	16A-~LL 16c	2r	.
.	16d 16f	.	.
.	16e- 16g	.	.
.	16d 16f	.	.
.	16e- 16g	.	.
.	16d 16f	.	.
.	16e- 16g	.	.
.	16dJJ 16f	.	.
=72	=72	=72	=72
2r	16A-~LL 16c	2r	.
.	16d 16f	.	.
.	16e- 16g	.	.
.	16d 16f	.	.
.	16G~ 16B-	.	.
.	16c 16e-X	.	.
.	16d 16f	.	.
.	16cJJ 16e-	.	.
*	*clefF4	*	*
=73	=73	=73	=73
2r	16F~LL 16A-	2r	.
.	16B- 16d	.	.
.	16c 16e-	.	.
.	16B- 16d	.	.
.	16c 16e-	.	.
.	16B- 16d	.	.
.	16c 16e-	.	.
.	16B-JJ 16d	.	.
=74	=74	=74	=74
2r	16F~LL 16A-	2r	.
.	16B- 16d	.	.
.	16c 16e-	.	.
.	16B- 16d	.	.
.	16E-~ 16G	.	.
.	16A-X 16c	.	.
.	16B-X 16d	.	.
.	16A-JJ 16c	.	.
=75	=75	=75	=75
!	!	!	!Dynamic Expression: piu
2r	16D~LL 16F	2r	pp
.	16A- 16c	.	.
.	16B- 16d	.	.
.	16A- 16c	.	.
.	16B- 16d	.	.
.	16A- 16c	.	.
.	16B- 16d	.	.
.	16A-JJ 16c	.	.
=76	=76	=76	=76
2r	16C~LL 16E-	2r	.
.	16A- 16c	.	.
.	16B- 16d	.	.
.	16A- 16c	.	.
.	16D~ 16F	.	.
.	16A- 16c	.	.
.	16C~ 16E-	.	.
.	16A-JJ 16c	.	.
=77	=77	=77	=77
2r	16BB-~LL 16D	2r	.
.	16A- 16c	.	.
.	16B- 16d	.	.
.	16A- 16c	.	.
.	16B- 16d	.	.
.	16A- 16c	.	.
.	16B- 16d	.	.
.	16A-JJ 16c	.	.
=78	=78	=78	=78
2r	16AA-~LL 16C	2r	.
.	16A- 16c	.	.
.	16B- 16d	.	.
.	16A- 16c	.	.
.	16BB-~ 16D	.	.
.	16A- 16c	.	.
.	16C~ 16E-	.	.
.	16A-JJ 16c	.	.
=79	=79	=79	=79
2r	16D~LL 16F	2r	<
.	16A- 16c	.	.
.	16B- 16d	.	.
.	16A- 16c	.	.
.	16E-~ 16G	.	.
.	16A- 16c	.	.
.	16B- 16d	.	.
.	16A-JJ 16c	.	.
=80	=80	=80	=80
2r	16D~LL 16F	2r	.
.	16A- 16c	.	.
.	16B- 16d	.	.
.	16A- 16c	.	.
.	16F~ 16A-X	.	.
.	16B-X 16d	.	.
.	16c 16e-	.	.
.	16B-JJ 16d	.	.
=81||	=81||	=81||	=81||
*k[f#c#g#d#]	*k[f#c#g#d#]	*k[f#c#g#d#]	*k[f#c#g#d#]
!	!	!	!Dynamic Expression: subito
2r	16D#~LL 16F#	2r	[pp
.	16A 16c#	.	.
.	16B 16d#	.	.
.	16A 16c#	.	.
.	16B 16d#	.	.
.	16A 16c#	.	.
.	16B 16d#	.	.
.	16AJJ 16c#	.	.
=82	=82	=82	=82
2r	16C#~LL 16E	2r	.
.	16A 16c#	.	.
.	16B 16d#	.	.
.	16A 16c#	.	.
.	16D#~ 16F#	.	.
.	16A 16c#	.	.
.	16C#~ 16E	.	.
.	16AJJ 16c#	.	.
=83	=83	=83	=83
2r	16BB~LL 16D#	2r	.
.	16A 16c#	.	.
.	16B 16d#	.	.
.	16A 16c#	.	.
.	16B 16d#	.	.
.	16A 16c#	.	.
.	16B 16d#	.	.
.	16AJJ 16c#	.	.
=84	=84	=84	=84
2r	16AA~LL 16C#	2r	.
.	16A 16c#	.	.
.	16B 16d#	.	.
.	16A 16c#	.	.
.	16BB~ 16D#	.	.
.	16A 16c#	.	.
.	16C#~ 16E	.	.
.	16AJJ 16c#	.	.
=85	=85	=85	=85
2r	16D#~LL 16F#	2r	<
.	16A 16c#	.	.
.	16B 16d#	.	.
.	16A 16c#	.	.
.	16E~ 16G#	.	.
.	16A 16c#	.	.
.	16B 16d#	.	.
.	16AJJ 16c#	.	.
=86	=86	=86	=86
2r	16D#~LL 16F#	2r	.
.	16A 16c#	.	.
.	16B 16d#	.	.
.	16A 16c#	.	.
.	16F#~ 16A	.	.
.	16B 16d#	.	.
.	16c# 16e	.	.
.	16BJJ 16d#	.	.
*	*clefG2	*	*
=87	=87	=87	=87
2r	(>16A~LL 16c#	2r	[p<
.	16d# 16f#	.	.
.	16e 16g#	.	.
.	16d#JJ 16f#	.	.
.	4aa~) 4ccc#	.	.
=88	=88	=88	=88
2r	(>16A~LL 16c#	2r	[p<
.	16d# 16f#	.	.
.	16e 16g#	.	.
.	16d#JJ 16f#	.	.
.	[4aa~) [4ccc#	.	.
=89	=89	=89	=89
2r	2aa] 2ccc#]	2r	[
=90	=90	=90	=90
!	!	!	!Dynamic Expression: piu
2r	2r	[2aa~ [2ccc#	p
=91||	=91||	=91||	=91||
*k[]	*k[]	*k[]	*k[]
!	!	!Expression: doux et lie	!
2r	2r	>4aa] 4ccc#]	pp>
.	.	4g 4b	.
=92	=92	=92	=92
4ryy	4f 4a	2r	.
4G 4B	4ryy	.	.
=93	=93	=93	=93
2r	2r	>4aa 4ccc#	]pp>
.	.	12gL 12b	.
.	.	12a 12cc#X	.
.	.	12gJ 12b	.
=94	=94	=94	=94
4ryy	4f 4a	2r	.
4G 4B	4ryy	.	.
=95	=95	=95	=95
2r	(>4f 4a	2r	]
.	4b 4dd#	.	.
=96	=96	=96	=96
2r	4a 4cc#	2r	.
.	4ee- 4gg	.	.
=97	=97	=97	=97
2r	2dd- 2ff	2r	<
=98	=98	=98	=98
2r	2eee-) 2ggg	2r	.
=99	=99	=99	=99
2r	2r	>4ccc 4eeen	[pp>
.	.	4b- 4dd	.
=100	=100	=100	=100
4ryy	4a- 4cc	2r	.
4B- 4d	4ryy	.	.
=101	=101	=101	=101
2r	2r	>4ccc 4eee	]pp>
.	.	12b-L 12dd	.
.	.	12cc 12ee	.
.	.	12b-J 12dd	.
=102	=102	=102	=102
2r	4a- 4cc	2r	.
.	4d) 4f	.	.
=103	=103	=103	=103
2r	2r	(>12A-L 12c	]p<
.	.	12d 12f	.
.	.	12a-J 12cc	.
.	.	8.e-L 8.g	.
.	.	16ee-Jk 16gg	.
=104	=104	=104	=104
2r	4a- 4cc	4ryy	.
.	4r	4aa-) 4ccc	.
=105	=105	=105	=105
2r	2r	(>12A-L 12c	[p<
.	.	12d 12f	.
.	.	12a-J 12cc	.
.	.	8.e-L 8.g	.
.	.	16ee-Jk 16gg	.
=106	=106	=106	=106
2r	2r	8.a-L) 8.cc	.
.	.	(>16aa-Jk 16ccc	.
.	.	8.ddL) 8.ff#	.
.	.	(>16ee-Jk 16gg	.
=107	=107	=107	=107
2r	2r	8.a-L) 8.cc	.
.	.	(>16aa-Jk 16ccc	.
.	.	8.ddL) 8.ff#	.
.	.	<16dJk 16f#	[p>
=108||	=108||	=108||	=108||
*	*clefF4	*	*
*k[b-e-a-]	*k[b-e-a-]	*k[b-e-a-]	*k[b-e-a-]
!Tempo Marking: Retenu	!Tempo Marking: Retenu	!Tempo Marking: Retenu	!Tempo Marking: Retenu
!	!Expression: gracieux	!	!
4r	[4A- [4c	2r	]
8BBB-'	8.A-L] 8.c]	.	pp
8r	.	.	.
.	(>16e-Jk 16g	.	.
=109	=109	=109	=109
2r	8.G) 8.B-	8.ryy	.
.	16ryy	(>16ee- 16gg	>
.	4ryy	12b-L 12dd	.
.	.	12g 12b-	.
.	.	12cJ 12e-	]pp>
=110	=110	=110	=110
.	.	(<8qd/ 8qf#	]
4r	[4A- [4c	4d)) 4f#	.
8BBB-'	8.A-L] 8.c]	4r	]
8r	.	.	.
.	(16e-Jk 16g	.	.
=111	=111	=111	=111
2r	8.G) 8.B-	8.ryy	<
.	16ryy	(>16ee- 16gg	[>
.	12ryy	12b-L 12dd	.
.	12ryy	12gJ 12b-	.
*	*clefG2	*	*
.	<[12e-~ [12g	12ryy	]
=112	=112	=112	=112
2r	4e-] 4g]	8.A-L) 8.c	]
.	.	[16a-~Jk [16cc	.
.	8.dL 8.f	4a-] 4cc]	.
.	<[16c~Jk [16e-	.	.
*	*	*clefF4	*
=113	=113	=113	=113
2r	4c] 4e-]	8.FL) 8.A-	.
*	*	*clefG2	*
.	.	>[16f~Jk [16a-	.
.	4B- 4d	8.fL] 8.a-]	.
*	*	*clefF4	*
.	.	(>16A-~Jk 16c	.
=114	=114	=114	=114
2r	2r	8.DL) 8.F	<
*	*	*clefG2	*
.	.	(<16c-~Jk 16e-	.
.	.	8.FL) 8.A-	.
.	.	(<16e-~Jk 16g	.
=115	=115	=115	=115
*	*clefF4	*	*
2r	4ryy	8.AnL) 8.c	.
.	.	(<[16g-~Jk [16b-	.
.	[4c) [4en	4g-] 4b-]	.
=116	=116	=116	=116
4ryy	8.cL] 8.e]	2r	[p
!	!Expression: m.d.	!	!
.	[16G-Jk [16B-	.	>
[4C; [4En	4G-;] 4B-]	.	.
=117||	=117||	=117||	=117||
!Tempo Marking: au Mouvt	!Tempo Marking: au Mouvt	!Tempo Marking: au Mouvt	!Tempo Marking: au Mouvt
16CLL] 16En]	2r	2r	]pp
16GG- 16BB-	.	.	.
16C 16E	.	.	.
16D 16F#	.	.	.
16C 16E	.	.	.
16GG- 16BB-	.	.	.
16C 16E	.	.	.
16DJJ 16F#	.	.	.
=118	=118	=118	=118
16CLL 16En	2r	2r	.
16GG- 16BB-	.	.	.
16C 16E	.	.	.
16D 16F#	.	.	.
16C 16E	.	.	.
16BB- 16D	.	.	.
16AA- 16C	.	.	.
16BB-JJ 16D	.	.	.
=119	=119	=119	=119
16CLL 16En	2r	2r	.
16GG- 16BB-	.	.	.
16C 16E	.	.	.
16D 16F#	.	.	.
16C 16E	.	.	.
16GG- 16BB-	.	.	.
16C 16E	.	.	.
16DJJ 16F#	.	.	.
=120	=120	=120	=120
16CLL 16En	2r	2r	.
16GG- 16BB-	.	.	.
16C 16E	.	.	.
16D 16F#	.	.	.
16C 16E	.	.	.
16BB- 16D	.	.	.
16AA- 16C	.	.	.
16BB-JJ 16D	.	.	.
=121	=121	=121	=121
16CCLL 16EE-	2r	2r	<
16GG- 16BB-	.	.	.
16DD# 16FF#	.	.	.
16AAn 16C#	.	.	.
16FF# 16AAn	.	.	.
16Cn 16En	.	.	.
16AA [16C	.	.	.
[16E-XJJ [16G	.	.	[sf
=122	=122	=122	=122
8AAn 8C] 8E-] 8G]	2r	2r	.
16FFLL 16AA-	.	.	>
16C- 16E-	.	.	.
16FF# 16AAn	.	.	.
16Cn 16En	.	.	.
16GG 16BB-	.	.	.
16D-JJ 16F	.	.	]]
=123	=123	=123	=123
16CCLL 16EE-	2r	2r	]p<
16GG- 16BB-	.	.	.
16DD# 16FF#	.	.	.
16AAn 16C#	.	.	.
16FF# 16AAn	.	.	.
16Cn 16En	.	.	.
16AA [16C	.	.	.
[16E-JJ [16G	.	.	[sf
=124	=124	=124	=124
8AAn 8C] 8E-] 8G]	2r	2r	.
16FF#LL 16AA	.	.	>
16C 16En	.	.	.
16GG 16BB-	.	.	.
16D- 16F	.	.	.
16GG# 16BBn	.	.	.
16DnJJ 16F#	.	.	]]
=125||	=125||	=125||	=125||
*k[]	*k[]	*k[]	*k[]
2r	16F~LL 16A	2r	]pp
.	16B 16d	.	.
.	16c 16e	.	.
.	16B 16d	.	.
.	16F 16A	.	.
.	16B 16d	.	.
.	16c 16e	.	.
.	16BJJ 16d	.	.
=126	=126	=126	=126
2r	16E~LL 16G#	2r	.
.	16B 16d	.	.
.	16c 16e	.	.
.	16B 16d	.	.
.	16E 16A	.	.
.	16B 16d	.	.
.	16c 16e	.	.
.	16BJJ 16d	.	.
=127	=127	=127	=127
*	*clefG2	*	*
2r	16A~LL 16c	2r	.
.	16d 16f	.	.
.	16e 16g	.	.
.	16d 16f	.	.
.	16A 16c	.	.
.	16d 16f	.	.
.	16e 16g	.	.
.	16dJJ 16f	.	.
=128	=128	=128	=128
2r	16ALL 16c	2r	.
.	16d 16f	.	.
.	16e 16g	.	.
.	16d 16f	.	.
.	16G~ 16B	.	.
.	16d 16f	.	.
.	16e 16g	.	.
.	16dJJ 16f	.	.
*	*clefF4	*	*
=129	=129	=129	=129
2r	16F~LL 16A	2r	.
.	16B 16d	.	.
.	16c 16e	.	.
.	16B 16d	.	.
.	16F 16A	.	.
.	16B 16d	.	.
.	16c 16e	.	.
.	16BJJ 16d	.	.
=130	=130	=130	=130
2r	16E~LL 16G#	2r	.
.	16B 16d	.	.
.	16c 16e	.	.
.	16B 16d	.	.
.	16E 16G#	.	.
.	16B 16d	.	.
.	16c 16e	.	.
.	16BJJ 16d	.	.
*	*clefG2	*	*
=131	=131	=131	=131
2r	16A~LL 16c	2r	.
.	16d 16f	.	.
.	16e 16g	.	.
.	16d 16f	.	.
.	16A 16c	.	.
.	16d 16f	.	.
.	16e 16g	.	.
.	16dJJ 16f	.	.
=132	=132	=132	=132
2r	16ALL 16c	2r	.
.	16d 16f	.	.
.	16e 16g	.	.
.	16d 16f	.	.
.	16G~ 16B	.	.
.	16d 16f	.	.
.	16e 16g	.	.
.	16dJJ 16f	.	.
=133	=133	=133	=133
2r	16c~LL 16e	2r	.
.	16f 16a	.	.
.	16g 16b	.	.
.	16f 16a	.	.
.	16c 16e	.	.
.	16f 16a	.	.
.	16g 16b	.	.
.	16fJJ 16a	.	.
=134	=134	=134	=134
2r	16B~LL 16d	2r	.
.	16f 16a	.	.
.	16g 16b	.	.
.	16f 16a	.	.
.	16B 16d	.	.
.	16f 16a	.	.
.	16g 16b	.	.
.	16fJJ 16a	.	.
=135	=135	=135	=135
2r	16e~LL 16g	2r	<
.	16a 16cc	.	.
.	16b 16dd	.	.
.	16a 16cc	.	.
.	16b 16dd	.	.
.	16a 16cc	.	.
.	16b 16dd	.	.
.	16aJJ 16cc	.	.
=136	=136	=136	=136
2r	16f~LL 16a-	2r	[>
.	16an 16cc	.	.
.	16b- 16dd	.	.
.	16a 16cc	.	.
.	16e~ 16g	.	.
.	16a 16cc	.	.
.	16b- 16dd	.	.
.	16aJJ 16cc	.	.
=137	=137	=137	=137
2r	16e-~LL 16g-	2r	]p
.	16a 16cc	.	.
.	16b 16dd	.	.
.	16a 16cc	.	.
.	16ee- 16gg-	.	.
.	16a 16cc	.	.
.	16b 16dd	.	.
.	16aJJ 16cc	.	.
=138	=138	=138	=138
2r	16e-~LL 16g-	2r	.
.	16a 16cc	.	.
.	16b 16dd	.	.
.	16a 16cc	.	.
.	16ee- 16gg-	.	.
.	16a 16cc	.	.
.	16b 16dd	.	.
.	16aJJ 16cc	.	.
=139	=139	=139	=139
2r	16d~LL 16f#	2r	<
.	16gn 16b	.	.
.	16a 16cc	.	.
.	16g 16b	.	.
.	16a 16cc	.	.
.	16g 16b	.	.
.	16a 16cc	.	.
.	16gJJ 16b	.	.
=140	=140	=140	=140
2r	16e~LL 16g	2r	[>
.	16g 16b	.	.
.	16a 16cc	.	.
.	16g 16b	.	.
.	16d#~ 16f#	.	.
.	16g 16b	.	.
.	16a 16cc	.	.
.	16gJJ 16b	.	.
=141	=141	=141	=141
2r	16dn~LL 16fn	2r	]
.	16g 16b	.	.
.	16a 16cc	.	.
.	16g 16b	.	.
.	16dd 16ff	.	.
.	16g 16b	.	.
.	16a 16cc	.	.
.	16gJJ 16b	.	.
=142	=142	=142	=142
2r	16c~LL 16e	2r	.
.	16f 16a	.	.
.	16g 16b	.	.
.	16f 16a	.	.
.	16cc 16ee	.	.
.	16f 16a	.	.
.	16g 16b	.	.
.	16fJJ 16a	.	.
=143	=143	=143	=143
2r	16B~LL 16d	2r	.
.	16e 16g	.	.
.	16f 16a	.	.
.	16e 16g	.	.
.	16b 16dd	.	.
.	16e 16g	.	.
.	16f 16a	.	.
.	16eJJ 16g	.	.
=144	=144	=144	=144
2r	16A~LL 16c	2r	.
.	16d 16f	.	.
.	16e 16g	.	.
.	16d 16f	.	.
.	16a 16cc	.	.
.	16d 16f	.	.
.	16e 16g	.	.
.	16dJJ 16f	.	.
=145	=145	=145	=145
!	!	!	!Dynamic Expression: poco cresc.
2r	16G~LL 16B	2r	.
.	16d 16f	.	.
.	16e 16g	.	.
.	16d 16f	.	.
.	16g 16b	.	.
.	16d 16f	.	.
.	16e 16g	.	.
.	16dJJ 16f	.	.
=146	=146	=146	=146
2r	16GLL 16B	2r	.
.	16d 16f	.	.
.	16e 16g	.	.
.	16d 16f	.	.
.	16g 16b	.	.
.	16d 16f	.	.
.	16e 16g	.	.
.	16dJJ 16f	.	.
=147	=147	=147	=147
2r	16G~LL 16B-	2r	.
.	16c 16e	.	mf<
.	16d 16f	.	.
.	16c 16e	.	.
.	16g 16b-	.	.
.	16c 16e	.	.
.	16d 16f	.	.
.	16cJJ 16e	.	.
=148	=148	=148	=148
2r	16GLL 16B-	2r	[
.	16c 16e	.	.
.	16d 16f	.	.
.	16c 16e	.	.
.	16g 16b-	.	.
.	16c 16e	.	.
.	16d 16f	.	.
.	16cJJ 16e	.	.
=149	=149	=149	=149
2r	16BnLL 16d#	2r	.
.	16c 16e	.	.
.	16B- 16dn	.	.
.	16c- 16e-	.	.
.	16A 16c#	.	.
.	16B- 16d	.	.
.	16A- 16cn	.	.
.	16AnJJ 16c#X	.	.
*	*clefF4	*	*
=150	=150	=150	=150
2r	16GLL 16B	2r	.
.	16A- 16c	.	.
.	16F# 16A#	.	.
.	16G 16B	.	.
.	16Fn 16An	.	.
.	16G- 16B-	.	.
.	16E 16G#	.	.
.	16FJJ 16An	.	.
=151	=151	=151	=151
2r	4r	2r	.
!	!	!	!Dynamic Expression: molto dim.
.	16E-LL 16G	.	.
.	16En 16G#	.	.
.	16D 16F#	.	.
.	16E-XJJ 16Gn	.	.
=152	=152	=152	=152
2r	16D-LL 16Fn	2r	.
.	16Dn 16F#	.	.
.	16C 16E	.	.
.	16D-X 16Fn	.	.
.	16BB 16D#	.	.
.	16C 16E	.	.
.	16BB- 16Dn	.	.
.	16C-JJ 16E-	.	.
=153	=153	=153	=153
2r	16AALL 16C#	2r	.
.	16BB- 16D	.	.
.	16AA- 16Cn	.	.
.	16AA- 16C#X	.	.
.	16GG 16BB-	.	.
.	16AA-X 16Cn	.	.
.	16GG- 16BB-X	.	.
.	16GGnJJ 16BBn	.	.
=154	=154	=154	=154
2r	16CCLL 16EE	2r	p<
.	16DD# 16FF#	.	.
.	16CC 16EE	.	.
.	16DD# 16FF#	.	.
.	16EE 16GG	.	.
.	16FF#X 16AA#	.	.
.	16EE 16GG	.	.
.	16FF#JJ 16AA#	.	.
=155	=155	=155	=155
2r	16GGLL 16BB	2r	[>
.	16FF# 16AA#	.	.
.	16BB 16D	.	.
.	16AA# 16C#	.	.
.	16GG 16BB	.	.
.	16FF# 16AA#	.	.
.	16EE 16GG	.	.
.	16DD#JJ 16FF#	.	.
=156	=156	=156	=156
2r	16CCLL 16EE	2r	]pp<
.	16DD# 16FF#	.	.
.	16CC 16EE	.	.
.	16DD# 16FF#	.	.
.	16EE 16GG	.	.
.	16FF# 16AA#	.	.
.	16EE 16GG	.	.
.	16FF#JJ 16AA#	.	.
=157	=157	=157	=157
2r	16GGLL 16BB	2r	[>
.	16FF# 16AA#	.	.
.	16BB 16D	.	.
.	16AA# 16C#	.	.
.	16GG 16BB	.	.
.	16FF# 16AA#	.	.
.	16EE 16GG	.	.
.	16DD#JJ 16FF#	.	.
=158	=158	=158	=158
!	!	!	!Dynamic Expression: piu
2r	16CCLL 16EE	2r	]pp
.	16FF# 16AA#	.	.
.	16EE 16GG	.	.
.	16DD# 16FF#	.	.
.	16CC 16EE	.	.
.	16FF# 16AA#	.	.
.	16EE 16GG	.	.
.	16DD#JJ 16FF#	.	.
=159	=159	=159	=159
2r	16CCLL 16EE	2r	.
.	16FF# 16AA#	.	.
.	16EE 16GG	.	.
.	16DD# 16FF#	.	.
.	16CC 16EE	.	.
.	16FF# 16AA#	.	.
.	16EE 16GG	.	.
.	16DD#JJ 16FF#	.	.
=160	=160	=160	=160
!	!	!	!Dynamic Expression: sempre
2r	16CCLL 16EE	2r	pp
.	16FF# 16AA#	.	.
.	16EE 16GG	.	.
.	16DD# 16FF#	.	.
.	16CC 16EE	.	.
.	16FF# 16AA#	.	.
.	16EE 16GG	.	.
.	16DD#JJ 16FF#	.	.
=161	=161	=161	=161
2r	16CCLL 16EE	2r	>
.	16FF# 16AA#	.	.
.	16EE 16GG	.	.
.	16DD# 16FF#	.	.
.	16CC 16EE	.	.
.	16FF# 16AA#	.	.
.	16EE 16GG	.	.
.	16DD#JJ 16FF#	.	.
=162	=162	=162	=162
8CC' 8EE	2r	2r	]
8r	.	.	.
4r	.	.	.
=163	=163	=163	=163
*8ba	*	*	*
8CCC' 8EEE	8CC' 8EE	2r	.
*X8ba	*	*	*
8r	8r	.	.
4r	4r	.	.
=164	=164	=164	=164
!	!	!Expression: doux	!
2r	2r	[2c; [2e	.
=165	=165	=165	=165
2r	2r	4c] 4e]	.
.	.	4r	.
==	==	==	==
*-	*-	*-	*-
!!!system-decoration: [({(s1,s2,s3)})]
!!!RDF**kern: > = above
!!!RDF**kern: < = below
!!!RDF**kern: Z = caesura
